src/assets/logo.svg

<svg width="419" height="157" viewBox="0 0 419 157" version="1.1" xmlns="http://www.w3.org/2000/svg" xmlns:xlink="http://www.w3.org/1999/xlink">
<title>Logo</title>
<desc>Created using Figma</desc>
<g id="Canvas" transform="translate(2125 366)">
<g id="Logo">
<g id="CONF">
<use xlink:href="#path0_fill" transform="translate(-1963 -282)" fill="#DD4C39"/>
<use xlink:href="#path1_fill" transform="translate(-1963 -282)" fill="#DD4C39"/>
<use xlink:href="#path2_fill" transform="translate(-1963 -282)" fill="#DD4C39"/>
<use xlink:href="#path3_fill" transform="translate(-1963 -282)" fill="#DD4C39"/>
</g>
<g id="reasonml_logo_red">
<g id="Ebene 2">
<g id="Ebene 2">
<g id="Subtract">
<use xlink:href="#path4_fill" transform="translate(-2125 -366)" fill="#DD4B39"/>
</g>
</g>
</g>
</g>
</g>
</g>
<defs>
<path id="path0_fill" d="M 56.4437 53.9625C 53.7477 57.0509 50.4207 59.5103 46.4628 61.3405C 42.5048 63.1135 37.9446 64 32.7821 64C 28.0784 64 23.719 63.2279 19.7037 61.6836C 15.7457 60.1394 12.304 57.966 9.3786 55.1635C 6.45317 52.3038 4.15871 48.9008 2.49522 44.9544C 0.831741 41.008 0 36.6613 0 31.9142C 0 27.0527 0.831741 22.6488 2.49522 18.7024C 4.21607 14.756 6.56789 11.4102 9.55069 8.66488C 12.5335 5.86238 16.0325 3.7176 20.0478 2.23056C 24.0631 0.74352 28.3939 0 33.0402 0C 37.3423 0 41.5584 0.772119 45.6884 2.31635C 49.8758 3.8034 53.2601 6.00536 55.8414 8.92225L 45.8605 18.874C 44.4838 16.9866 42.6769 15.5853 40.4398 14.6702C 38.2027 13.7551 35.9083 13.2976 33.5565 13.2976C 30.9752 13.2976 28.5947 13.7837 26.415 14.756C 24.2926 15.6711 22.457 16.958 20.9083 18.6166C 19.3595 20.2752 18.1549 22.2484 17.2945 24.5362C 16.4341 26.7668 16.0039 29.2261 16.0039 31.9142C 16.0039 34.6595 16.4341 37.176 17.2945 39.4638C 18.1549 41.7516 19.3308 43.7248 20.8222 45.3834C 22.371 46.9848 24.2065 48.2431 26.3289 49.1582C 28.4513 50.0733 30.7744 50.5308 33.2983 50.5308C 36.2238 50.5308 38.7764 49.9589 40.9561 48.815C 43.1358 47.6711 44.8853 46.1841 46.2047 44.3539L 56.4437 53.9625Z"/>
<path id="path1_fill" d="M 125.24 31.7426C 125.24 36.5469 124.409 40.9508 122.745 44.9544C 121.082 48.9008 118.759 52.3038 115.776 55.1635C 112.85 57.966 109.351 60.1394 105.279 61.6836C 101.206 63.2279 96.7892 64 92.0282 64C 87.2672 64 82.8504 63.2279 78.7777 61.6836C 74.7624 60.1394 71.2633 57.966 68.2805 55.1635C 65.3551 52.3038 63.0606 48.9008 61.3972 44.9544C 59.7337 40.9508 58.9019 36.5469 58.9019 31.7426C 58.9019 26.8811 59.7337 22.5058 61.3972 18.6166C 63.0606 14.6702 65.3551 11.3244 68.2805 8.57909C 71.2633 5.83378 74.7624 3.7176 78.7777 2.23056C 82.8504 0.74352 87.2672 0 92.0282 0C 96.7892 0 101.206 0.74352 105.279 2.23056C 109.351 3.7176 112.85 5.83378 115.776 8.57909C 118.759 11.3244 121.082 14.6702 122.745 18.6166C 124.409 22.5058 125.24 26.8811 125.24 31.7426ZM 109.495 31.7426C 109.495 29.1117 109.065 26.6524 108.204 24.3646C 107.344 22.0769 106.139 20.1323 104.59 18.5308C 103.099 16.8722 101.263 15.5853 99.0837 14.6702C 96.9613 13.6979 94.6095 13.2118 92.0282 13.2118C 89.4469 13.2118 87.0951 13.6979 84.9727 14.6702C 82.8504 15.5853 81.0148 16.8722 79.466 18.5308C 77.9173 20.1323 76.7127 22.0769 75.8523 24.3646C 75.0492 26.6524 74.6477 29.1117 74.6477 31.7426C 74.6477 34.4879 75.0779 37.0331 75.9383 39.378C 76.7987 41.6658 77.9746 43.639 79.466 45.2976C 81.0148 46.9562 82.8504 48.2717 84.9727 49.244C 87.0951 50.1591 89.4469 50.6166 92.0282 50.6166C 94.6095 50.6166 96.9613 50.1591 99.0837 49.244C 101.206 48.2717 103.042 46.9562 104.59 45.2976C 106.139 43.639 107.344 41.6658 108.204 39.378C 109.065 37.0331 109.495 34.4879 109.495 31.7426Z"/>
<path id="path2_fill" d="M 173.647 62.37L 149.125 22.6488L 148.866 22.6488L 149.211 62.37L 134.928 62.37L 134.928 1.63003L 151.706 1.63003L 176.142 41.2654L 176.4 41.2654L 176.056 1.63003L 190.339 1.63003L 190.339 62.37L 173.647 62.37Z"/>
<path id="path3_fill" d="M 217.445 14.1555L 217.445 26.681L 241.021 26.681L 241.021 38.7775L 217.445 38.7775L 217.445 62.37L 202.904 62.37L 202.904 1.63003L 243 1.63003L 243 14.1555L 217.445 14.1555Z"/>
<path id="path4_fill" fill-rule="evenodd" d="M 0 0L 156 0L 156 156L 0 156L 0 0ZM 73.3892 146.894L 64.5518 130.126L 52.8135 130.126L 52.8135 146.894L 36.9944 146.894L 36.9944 86.311L 64.2175 86.311C 72.2251 86.311 78.433 88.1695 82.8414 91.8863C 87.25 95.6031 89.4554 100.836 89.458 107.586C 89.458 112.138 88.5359 116.07 86.6915 119.382C 84.8403 122.702 82.0419 125.395 78.6533 127.117L 91.2716 146.909L 73.3892 146.894ZM 52.821 117.507L 64.3174 117.507C 67.5425 117.507 70.0349 116.7 71.7947 115.087C 73.5544 113.473 74.4331 111.139 74.4307 108.086C 74.4307 105.148 73.552 102.886 71.7947 101.3C 70.0374 99.7145 67.5449 98.9217 64.3174 98.9217L 52.8135 98.9217L 52.821 117.507ZM 99.5671 86.311L 147.362 86.311L 147.362 98.9294L 115.382 98.9294L 115.382 110.253L 144.25 110.253L 144.25 122.783L 115.382 122.871L 115.382 134.279L 148.223 134.279L 148.223 146.894L 99.5671 146.894L 99.5671 86.311Z"/>
</defs>
</svg>

<svg width="419" height="157" viewBox="0 0 419 157" xmlns="http://www.w3.org/2000/svg" xmlns:xlink="http://www.w3.org/1999/xlink"><title>Logo</title><desc>Created using Figma</desc><g transform="translate(2125 366)"><use xlink:href="#a" transform="translate(-1963 -282)" fill="#DD4C39"/><use xlink:href="#b" transform="translate(-1963 -282)" fill="#DD4C39"/><use xlink:href="#c" transform="translate(-1963 -282)" fill="#DD4C39"/><use xlink:href="#d" transform="translate(-1963 -282)" fill="#DD4C39"/><g><use xlink:href="#e" transform="translate(-2125 -366)" fill="#DD4B39"/></g></g><defs><path id="a" d="M56.444 53.962c-2.696 3.089-6.023 5.548-9.981 7.378-3.958 1.773-8.518 2.66-13.68 2.66-4.705 0-9.064-.772-13.08-2.316-3.957-1.545-7.399-3.718-10.324-6.52-2.926-2.86-5.22-6.263-6.884-10.21C.832 41.008 0 36.661 0 31.914c0-4.861.832-9.265 2.495-13.212 1.721-3.946 4.073-7.292 7.056-10.037 2.982-2.803 6.481-4.947 10.497-6.434C24.063.744 28.394 0 33.04 0c4.302 0 8.518.772 12.648 2.316 4.188 1.487 7.572 3.69 10.153 6.606l-9.98 9.952c-1.377-1.887-3.184-3.289-5.421-4.204a18.023 18.023 0 0 0-6.883-1.372c-2.582 0-4.962.486-7.142 1.458a16.246 16.246 0 0 0-5.507 3.86c-1.549 1.66-2.753 3.632-3.614 5.92-.86 2.23-1.29 4.69-1.29 7.378 0 2.745.43 5.262 1.29 7.55.86 2.288 2.037 4.26 3.528 5.92 1.549 1.6 3.384 2.86 5.507 3.774 2.122.915 4.445 1.373 6.97 1.373 2.925 0 5.477-.572 7.657-1.716 2.18-1.144 3.93-2.63 5.249-4.461l10.239 9.608z"/><path id="b" d="M125.24 31.743c0 4.804-.831 9.208-2.495 13.211-1.663 3.947-3.986 7.35-6.969 10.21-2.926 2.802-6.425 4.975-10.497 6.52-4.073 1.544-8.49 2.316-13.25 2.316-4.762 0-9.179-.772-13.251-2.316-4.016-1.545-7.515-3.718-10.498-6.52-2.925-2.86-5.22-6.263-6.883-10.21-1.663-4.003-2.495-8.407-2.495-13.211 0-4.862.832-9.237 2.495-13.126 1.664-3.947 3.958-7.293 6.884-10.038 2.982-2.745 6.481-4.861 10.497-6.348C82.85.744 87.268 0 92.028 0c4.761 0 9.178.744 13.251 2.23 4.072 1.488 7.571 3.604 10.497 6.35 2.983 2.744 5.306 6.09 6.969 10.037 1.664 3.889 2.495 8.264 2.495 13.126zm-15.745 0c0-2.631-.43-5.09-1.291-7.378-.86-2.288-2.065-4.233-3.614-5.834-1.491-1.659-3.327-2.946-5.506-3.86-2.123-.973-4.475-1.46-7.056-1.46-2.581 0-4.933.487-7.055 1.46a16.248 16.248 0 0 0-5.507 3.86c-1.549 1.601-2.753 3.546-3.614 5.834-.803 2.287-1.204 4.747-1.204 7.378 0 2.745.43 5.29 1.29 7.635.86 2.288 2.037 4.261 3.528 5.92a17.32 17.32 0 0 0 5.507 3.946c2.122.915 4.474 1.373 7.055 1.373 2.581 0 4.933-.458 7.056-1.373a17.31 17.31 0 0 0 5.506-3.946c1.549-1.659 2.754-3.632 3.614-5.92.861-2.345 1.291-4.89 1.291-7.635z"/><path id="c" d="M173.647 62.37l-24.522-39.721h-.259l.345 39.721h-14.283V1.63h16.778l24.436 39.635h.258l-.344-39.635h14.283v60.74h-16.692z"/><path id="d" d="M217.445 14.155v12.526h23.576v12.097h-23.576V62.37h-14.541V1.63H243v12.526h-25.555z"/><path id="e" fill-rule="evenodd" d="M0 0h156v156H0V0zm73.39 146.894l-8.838-16.768H52.813v16.768H36.994V86.311h27.224c8.007 0 14.215 1.858 18.623 5.575 4.409 3.717 6.614 8.95 6.617 15.7 0 4.552-.922 8.484-2.766 11.796a19.122 19.122 0 0 1-8.039 7.735l12.619 19.792-17.883-.015zM52.82 117.507h11.496c3.226 0 5.718-.807 7.478-2.42 1.76-1.614 2.638-3.948 2.636-7.001 0-2.938-.879-5.2-2.636-6.786-1.758-1.585-4.25-2.378-7.478-2.378H52.814l.007 18.585zm46.746-31.196h47.795v12.618h-31.98v11.324h28.868v12.53l-28.868.088v11.408h32.841v12.615H99.567V86.311z"/></defs></svg>
